X:1
T:dr Briggäli-Juiz. 2002  Bb  ABAC
T:Gaby u. Hubert Frunz-Oeler
T:Dirigenten-Notiz  Edi Gasser
C:Unterwalden (CH)
%%partsbox
P:ABAC
R:Naturjodel
M:3/4
L:1/4
K:Bb
"Einleitung" f|c2F | edc | (B3 | B)z ||   
[P:A] F| B>F B/d/ | fdg | f>e c/A/ | F2F | A>F A/c/ | ecg | f>d B/G/ | F2F | 
B>F B/d/ | fdg | f>e c/A/ | F2F | A>F A/c/ | edc | (B3 | B)z ||
[P:B]  _A |G>E G/B/ | e>dc | B>F B/d/ | f>dB | A>F A/c/ | 
e>cA | B>A B/c/ | d3 | G>E G/B/ | e>dc | B>F B/d/ | 
f>dB | A>F A/c/ | e/f/ d/e/ c/d/ | (B3 | B)z ||
[P:C] GGG | e3 | FFF | d3 | A>c F/A/ | E>e d/c/ | B>A B/c/ | d3 | 
GGG | e3 | FFF | d3 | f>e c/A/ | F>e d/c/ | (B3 | B>)zz | 
G/G/ G/E/ G/B/ | e/e/ e/d/c | F/F/ F/D/ F/B/ | d/d/ d/c/B | A>c F/A/ | E>e d/c/ | 
B>A B/c/ | d3 | G/G/ G/E/ G/B/ | e/e/ e/d/c | F/F/ F/D/ F/B/ | d/d/ d/c/B | 
A>c F/A/ | E>e d/c/ | (B3 | B)zf || "Ausklang"  c2A | edc | (B3 | B)zz |] 
W:
%W:Reihenfolge: A - B - A - C
W:Uraufführung Oktober 2002 Jodlerklub Echo vom Melchtal
W:notiert Edi Gasser. Angaben: G+H Frunz
W:UJV-Naturjodelsammlung: Code-Nr: 55-01
W:http://www.naturjodler.ch/code 55.htm  (no AUDIO, Sept 2018)
%September 22, 2018

